html/assets/images/dynamic/business-enabler-8.svg

<svg width="72" height="69" viewBox="0 0 72 69" fill="none" xmlns="http://www.w3.org/2000/svg">
<path d="M27.0924 24.0222C25.6036 32.1874 16.3486 35.518 16.3486 43.9748C16.3486 49.6997 21.3675 54.7186 27.0924 54.7186C32.8172 54.7186 37.8361 49.6997 37.8361 43.9748C37.8361 35.518 28.5965 32.1874 27.0924 24.0222Z" stroke="#00999A" stroke-width="2" stroke-linejoin="round"/>
<path d="M53.1839 27.0918C52.1095 31.7576 45.5098 34.7966 45.5098 40.9052C45.5098 45.0338 49.0552 48.5792 53.1839 48.5792C57.3125 48.5792 60.8579 45.0338 60.8579 40.9052C60.8579 34.7966 54.2582 31.7576 53.1839 27.0918Z" stroke="#00999A" stroke-width="2" stroke-linejoin="round"/>
<path d="M40.9049 10.209C40.0607 13.294 34.7656 18.0366 34.7656 22.4875C34.7656 25.4958 37.6357 28.6268 40.9049 28.6268C44.1741 28.6268 47.0442 25.4958 47.0442 22.4875C47.0442 18.0366 41.749 13.294 40.9049 10.209Z" stroke="#00999A" stroke-width="2" stroke-linejoin="round"/>
<path d="M45.8779 3.50146C63.3135 7.52269 74.1953 24.9275 70.1587 42.3784C69.9899 43.1151 69.7904 43.8365 69.5602 44.5578" stroke="#00999A" stroke-width="2" stroke-miterlimit="10"/>
<path d="M31.298 3.50146C19.6181 6.20274 9.88734 15.3196 7.01723 27.7976C5.68194 33.5532 5.98891 39.2934 7.60047 44.5578" stroke="#00999A" stroke-width="2" stroke-miterlimit="10"/>
<path d="M14.8896 57.1899C19.1411 61.7637 24.7585 65.1556 31.2968 66.6597C42.9768 69.361 54.6414 65.3551 62.2848 57.1746" stroke="#00999A" stroke-width="2" stroke-miterlimit="10"/>
<path d="M11.4675 36.1934L7.59972 44.5581L1 38.1119" stroke="#00999A" stroke-width="2" stroke-miterlimit="10"/>
<path d="M53.1074 58.0187L62.2856 57.1746L60.0141 66.1072" stroke="#00999A" stroke-width="2" stroke-miterlimit="10"/>
<path d="M51.1884 11.0224L45.8779 3.50176L54.7492 1" stroke="#00999A" stroke-width="2" stroke-miterlimit="10"/>
</svg>

<svg width="72" height="69" fill="none" xmlns="http://www.w3.org/2000/svg"><path d="M27.092 24.022C25.604 32.187 16.35 35.518 16.35 43.975c0 5.725 5.018 10.744 10.743 10.744 5.725 0 10.744-5.02 10.744-10.744 0-8.457-9.24-11.788-10.744-19.953zm26.092 3.07c-1.075 4.666-7.674 7.705-7.674 13.813 0 4.129 3.545 7.674 7.674 7.674 4.129 0 7.674-3.545 7.674-7.674 0-6.108-6.6-9.147-7.674-13.813zM40.905 10.209c-.844 3.085-6.14 7.828-6.14 12.279 0 3.008 2.87 6.139 6.14 6.139 3.27 0 6.14-3.131 6.14-6.14 0-4.45-5.296-9.193-6.14-12.278z" stroke="#00999A" stroke-width="2" stroke-linejoin="round"/><path d="M45.878 3.501c17.435 4.022 28.317 21.427 24.28 38.877a26.916 26.916 0 01-.598 2.18M31.298 3.501C19.618 6.203 9.888 15.32 7.018 27.798a32.195 32.195 0 00.582 16.76m7.29 12.632a32.169 32.169 0 0016.407 9.47c11.68 2.701 23.344-1.305 30.988-9.485" stroke="#00999A" stroke-width="2" stroke-miterlimit="10"/><path d="M11.467 36.193L7.6 44.558 1 38.112m52.107 19.907l9.179-.844-2.272 8.932m-8.826-55.085l-5.31-7.52L54.749 1" stroke="#00999A" stroke-width="2" stroke-miterlimit="10"/></svg>
